findly-builder/apps/searchassist/src/assets/icons/SDK-Icons/reply.svg

<svg width="16" height="16" viewBox="0 0 16 16" fill="none" xmlns="http://www.w3.org/2000/svg">
<path d="M3 1.5C2.17578 1.5 1.5 2.17344 1.5 2.99481V10.9671C1.5 11.7885 2.17578 12.4619 3 12.4619H4.5V14.053C4.5 14.4095 4.89913 14.622 5.19703 14.4242L8.15234 12.4619H13C13.8242 12.4619 14.5 11.7885 14.5 10.9671V2.99481C14.5 2.17344 13.8242 1.5 13 1.5H3ZM3 2.49654H13C13.2812 2.49654 13.5 2.71453 13.5 2.99481V10.9671C13.5 11.2474 13.2812 11.4654 13 11.4654H7.84766L5.5 13.0263V11.4654H3C2.71875 11.4654 2.5 11.2474 2.5 10.9671V2.99481C2.5 2.71453 2.71875 2.49654 3 2.49654ZM6.5 4.92087C6.5 4.7618 6.30676 4.68218 6.19383 4.79472L4.12658 6.85481C4.05665 6.9245 4.05665 7.03741 4.12658 7.1071L6.19383 9.16718C6.30676 9.27972 6.5 9.20011 6.5 9.04104V7.47922H10C10.2812 7.47922 10.5 7.69721 10.5 7.97749V8.97457C10.5 9.24946 10.7239 9.47229 11 9.47229C11.2761 9.47229 11.5 9.24946 11.5 8.97457V7.97749C11.5 7.15613 10.8242 6.48268 10 6.48268H6.5V4.92087Z" fill="#0D6EFD"/>
</svg>

<svg width="16" height="16" fill="none" xmlns="http://www.w3.org/2000/svg"><path d="M3 1.5c-.824 0-1.5.673-1.5 1.495v7.972c0 .822.676 1.495 1.5 1.495h1.5v1.591c0 .356.4.569.697.371l2.955-1.962H13c.824 0 1.5-.673 1.5-1.495V2.995c0-.822-.676-1.495-1.5-1.495H3Zm0 .997h10c.281 0 .5.218.5.498v7.972c0 .28-.219.498-.5.498H7.848L5.5 13.026v-1.56H3a.493.493 0 0 1-.5-.499V2.995c0-.28.219-.498.5-.498ZM6.5 4.92a.18.18 0 0 0-.306-.126l-2.067 2.06a.178.178 0 0 0 0 .252l2.067 2.06A.18.18 0 0 0 6.5 9.04V7.479H10c.281 0 .5.218.5.498v.998a.499.499 0 0 0 1 0v-.998c0-.82-.676-1.494-1.5-1.494H6.5V4.92Z" fill="#0D6EFD"/></svg>
